!!!OTL: Das letzte Stuendlein. / (Sterbelied.)
!!!ARE: Europa, Mitteleuropa, Deutschland
!!!SCT: A0659A
!!!TXL: @@DE
!!!YEM: Copyright 1995, estate of Helmut Schaffrath.
**kern	**text
*M4/2	*
*met(c|)	*
*clefC4	*
*k[b-]	*
*F:ion	*
=1	=1
!LO:TX:a:t=jon.	!
{1F	Wenn
2C	mein
2D	ſtündlein
=2	=2
2E	.
2F	vor-
2G	-han-
2A/	-den
=3	=3
1F	iſt,
=||	=||
1A	vnd
=4	=4
2c	ſol
2c	hin-
2A	-farn
2c	mein
=5	=5
1B-	ſtraſſe,
1A}	.
=6||	=6||
{1A	So
2c	gleit
2A	du
=7	=7
2G	mich
2F	Herr
2G	Jhe-
2A/	-ſu
=8	=8
1F	Chriſt,
=||	=||
1A	mit
=9	=9
2c	hülff
2c	mich
2A	nicht
2c	ver-
=10	=10
1B-	-laſ-
1A}	-ſe.
=11||	=11||
{1A	Mein
2c	Seel
2A	an
=12	=12
2G	mei-
2F	-nem
2G	letʒ-
2A/	-ten
=13	=13
1F	end,
=||	=||
1G	be-
=14	=14
2A/	-fehl
2A/	ich
2D	dir
2E	in
=15	=15
2F	dei-
2D	-ne
1C}	Hend,
=16||	=16||
{1C	du
2F	wolſt
2G	ſie
=17	=17
*lig	*
2.A/	mir
4G	.
2B-	.
*Xlig	*
2A	be-
=18	=18
1G	-wah-
1F/ll}	-ren!
==	==
!!!GTL: Geistliche Volkslieder
!!!AGN: Romanze, Ballade, Lied, religioeses Lied
!! Gsgb 1569
!!!ONB: ESAC (Essen Associative Code) Database: ALTDEU
!!!AMT: simple quadruple
!!!AIN: vox
!!!EED: Helmut Schaffrath
!!!EEV: 1.0
!!!RDF**kern: l = terminal long
!!!AMD: Ionian
!!!URL-scan: https://rosdok.uni-rostock.de/mcrviewer/recordIdentifier/rosdok_ppn738218359/iview2/phys_0838.iview2?x=-495.6391625615763&y=412.57881770376116&scale=0.4629418472063854&rotation=0&layout=singlePageLayout
!!!ENC: Anna Maria Matuszewska
!!!EEV: 2024/26/03
*-	*-
